X:1
T:Sweet Williams Farewell to Black-Eyd Susan
M:3/4
L:1/8
S:Chappell \`i Popular Music of the Olden Time (1859)
Z:AK/Fiddlers Companion
K:C Dorian
G2c2d2|e2d2c2|=B2c2d2|G4c2|BA G2F2|E4D2|C2D2F2|G6|G2c2d2|e4d2|e4f2|
G6|f6|d2c2B2|c2d2e2|f2d4|e6||g2f2e2|f2e2d2|=B2c2d2|G6|E2F2G2|F>G A2G2|
G2A2=B2|c>d e2d2|e2d2c2|B2c2=B2|c6||
